packages/icons/src/gitops-repository-blue-circle.svg

<svg fill="none" viewBox="0 0 32 32" xmlns="http://www.w3.org/2000/svg"><circle cx="16" cy="16" fill="#00ade4" r="16"/><path clip-rule="evenodd" d="m9.34707 10.6963c.02685.015.05699.0309.09075.0475.31101.1532.80148.3086 1.45858.4455 1.3041.2717 3.1343.4445 5.1759.4445 2.0415 0 3.8718-.1728 5.1758-.4445.6571-.1369 1.1476-.2923 1.4586-.4455.0338-.0166.0639-.0325.0908-.0475-.0269-.015-.057-.0309-.0908-.0475-.311-.1532-.8015-.3086-1.4586-.4455-1.304-.27168-3.1343-.44451-5.1758-.44451-2.0416 0-3.8718.17283-5.1759.44451-.6571.1369-1.14757.2923-1.45858.4455-.03376.0166-.0639.0325-.09075.0475zm1.29443-1.71673c1.4104-.29384 3.3302-.47078 5.4308-.47078s4.0203.17694 5.4307.47078c.7001.14585 1.308.32717 1.756.54785.2228.10974.4386.2448.6068.41601.1702.17327.3315.42707.3315.75287 0 .1633-.0406.3085-.1024.4346l-1.2199 11.3033.0002.023c0 .3078-.1525.544-.306.7004-.1516.1542-.3428.2729-.5339.3671-.3848.1895-.9012.3428-1.4882.4651-1.1842.2467-2.7914.3945-4.5469.3945-1.7554 0-3.3626-.1478-4.5468-.3945-.587-.1223-1.1034-.2756-1.48816-.4651-.19117-.0942-.38239-.2129-.53391-.3671-.11411-.1162-.22766-.2765-.27846-.4775l-.00487.0005-.00385-.0384c-.01213-.0585-.01891-.1201-.01891-.185l.00001-.0031-1.16577-11.6042c-.00792-.0493-.01221-.1005-.01221-.1536 0-.3258.16128-.5796.33148-.75287.16816-.17121.38394-.30627.60674-.41601.44803-.22068 1.05592-.402 1.75601-.54785zm10.8615 3.43343c.456-.095.8729-.205 1.232-.3312l-1.1049 10.2374c-.0312.0216-.0786.0503-.1472.0841-.2477.1221-.6467.2494-1.1907.3627-1.0778.2246-2.5956.3683-4.292.3683-1.6963 0-3.2141-.1437-4.2919-.3683-.5441-.1133-.943-.2406-1.1907-.3627-.0706-.0347-.1186-.0641-.1498-.0859l-1.03089-10.2616c.37504.1371.81749.2557 1.30459.3572 1.4104.2938 3.3302.4708 5.4308.4708s4.0203-.177 5.4307-.4708zm-4.53 2.9269c.0663-.3387-.1546-.6671-.4933-.7334-.3388-.0663-.6671.1545-.7334.4933l-.8638 4.4122c-.0663.3388.1546.6671.4933.7335.3388.0663.6672-.1546.7335-.4933zm1.1478-.1061c.236-.2519.6315-.2649.8834-.0289l1.7275 1.6178c.2487.233.265.6223.0365.8752l-1.7274 1.9119c-.2314.2562-.6267.2762-.8828.0448s-.2762-.6266-.0448-.8827l1.3159-1.4565-1.2793-1.1982c-.252-.2359-.2649-.6315-.029-.8834zm-5.2025-.0198c.2469-.2412.6426-.2367.8838.0102.2413.2469.2367.6426-.0101.8838l-1.2895 1.2602 1.3085 1.3951c.2361.2517.2235.6473-.0283.8834-.2517.2361-.6473.2235-.8834-.0283l-1.7274-1.8416c-.2328-.2481-.2243-.6368.019-.8746z" fill="#fff" fill-rule="evenodd"/></svg>

<svg viewBox="0 0 32 32" fill="none" xmlns="http://www.w3.org/2000/svg">
<circle cx="16" cy="16" r="16" fill="#00ADE4"/>
<path fill-rule="evenodd" clip-rule="evenodd" d="M9.34707 10.6963C9.37392 10.7113 9.40406 10.7272 9.43782 10.7438C9.74883 10.897 10.2393 11.0524 10.8964 11.1893C12.2005 11.461 14.0307 11.6338 16.0723 11.6338C18.1138 11.6338 19.9441 11.461 21.2481 11.1893C21.9052 11.0524 22.3957 10.897 22.7067 10.7438C22.7405 10.7272 22.7706 10.7113 22.7975 10.6963C22.7706 10.6813 22.7405 10.6654 22.7067 10.6488C22.3957 10.4956 21.9052 10.3402 21.2481 10.2033C19.9441 9.93162 18.1138 9.75879 16.0723 9.75879C14.0307 9.75879 12.2005 9.93162 10.8964 10.2033C10.2393 10.3402 9.74883 10.4956 9.43782 10.6488C9.40406 10.6654 9.37392 10.6813 9.34707 10.6963ZM10.6415 8.97957C12.0519 8.68573 13.9717 8.50879 16.0723 8.50879C18.1729 8.50879 20.0926 8.68573 21.503 8.97957C22.2031 9.12542 22.811 9.30674 23.259 9.52742C23.4818 9.63716 23.6976 9.77222 23.8658 9.94343C24.036 10.1167 24.1973 10.3705 24.1973 10.6963C24.1973 10.8596 24.1567 11.0048 24.0949 11.1309L22.875 22.4342L22.8752 22.4572C22.8752 22.765 22.7227 23.0012 22.5692 23.1576C22.4176 23.3118 22.2264 23.4305 22.0353 23.5247C21.6505 23.7142 21.1341 23.8675 20.5471 23.9898C19.3629 24.2365 17.7557 24.3843 16.0002 24.3843C14.2448 24.3843 12.6376 24.2365 11.4534 23.9898C10.8664 23.8675 10.35 23.7142 9.96524 23.5247C9.77407 23.4305 9.58285 23.3118 9.43133 23.1576C9.31722 23.0414 9.20367 22.8811 9.15287 22.6801L9.148 22.6806L9.14415 22.6422C9.13202 22.5837 9.12524 22.5221 9.12524 22.4572L9.12525 22.4541L7.95948 10.8499C7.95156 10.8006 7.94727 10.7494 7.94727 10.6963C7.94727 10.3705 8.10855 10.1167 8.27875 9.94343C8.44691 9.77222 8.66269 9.63716 8.88549 9.52742C9.33352 9.30674 9.94141 9.12542 10.6415 8.97957ZM21.503 12.413C21.959 12.318 22.3759 12.208 22.735 12.0818L21.6301 22.3192C21.5989 22.3408 21.5515 22.3695 21.4829 22.4033C21.2352 22.5254 20.8362 22.6527 20.2922 22.766C19.2144 22.9906 17.6966 23.1343 16.0002 23.1343C14.3039 23.1343 12.7861 22.9906 11.7083 22.766C11.1642 22.6527 10.7653 22.5254 10.5176 22.4033C10.447 22.3686 10.399 22.3392 10.3678 22.3174L9.33691 12.0558C9.71195 12.1929 10.1544 12.3115 10.6415 12.413C12.0519 12.7068 13.9717 12.8838 16.0723 12.8838C18.1729 12.8838 20.0926 12.7068 21.503 12.413ZM16.973 15.3399C17.0393 15.0012 16.8184 14.6728 16.4797 14.6065C16.1409 14.5402 15.8126 14.761 15.7463 15.0998L14.8825 19.512C14.8162 19.8508 15.0371 20.1791 15.3758 20.2455C15.7146 20.3118 16.043 20.0909 16.1093 19.7522L16.973 15.3399ZM18.1208 15.2338C18.3568 14.9819 18.7523 14.9689 19.0042 15.2049L20.7317 16.8227C20.9804 17.0557 20.9967 17.445 20.7682 17.6979L19.0408 19.6098C18.8094 19.866 18.4141 19.886 18.158 19.6546C17.9019 19.4232 17.8818 19.028 18.1132 18.7719L19.4291 17.3154L18.1498 16.1172C17.8978 15.8813 17.8849 15.4857 18.1208 15.2338ZM12.9183 15.214C13.1652 14.9728 13.5609 14.9773 13.8021 15.2242C14.0434 15.4711 14.0388 15.8668 13.792 16.108L12.5025 17.3682L13.811 18.7633C14.0471 19.015 14.0345 19.4106 13.7827 19.6467C13.531 19.8828 13.1354 19.8702 12.8993 19.6184L11.1719 17.7768C10.9391 17.5287 10.9476 17.14 11.1909 16.9022L12.9183 15.214Z" fill="white"/>
</svg>
